X:24
T:Flowers of Edinburgh
Z: id:dc-hornpipe-23
M:C|
L:1/8
K:G Major
GE|D2DE G2GA|BGBd cBAG|FGEF DEFG|A2FA D2GE|!
D2DE G2GA|BGBd efge|dcBA GFGA|B2G2 G2:|!
(3def|g2gf gbag|f2fe fagf|edef gfed|B2e2 e2ge|!
dBGB d2Bd|edef g2ge|dcBA GFGA|B2G2 G2:|